dist/images/graphics/icons/star.svg

<svg width="12" height="12" viewBox="0 0 12 12" fill="none" xmlns="http://www.w3.org/2000/svg">
<g clip-path="url(#clip0_141_219)">
<path d="M11.5217 4.72666C11.4811 4.60136 11.3729 4.50986 11.2422 4.49093L7.83477 3.99559L6.31088 0.905893C6.19369 0.669715 5.80698 0.669715 5.68979 0.905893L4.1659 3.99559L0.758447 4.49093C0.627738 4.50986 0.519565 4.60136 0.479 4.72666C0.437984 4.85196 0.472239 4.98943 0.56644 5.08137L3.03234 7.48642L2.45 10.8822C2.42792 11.012 2.4811 11.1436 2.58792 11.2206C2.69384 11.2986 2.83492 11.3081 2.95256 11.2472L6.00033 9.64402L9.04811 11.2472C9.09904 11.2738 9.15448 11.2869 9.20947 11.2869C9.21262 11.2874 9.21623 11.2874 9.21848 11.2869C9.41004 11.2869 9.56464 11.1319 9.56464 10.9407C9.56464 10.893 9.55517 10.847 9.53759 10.8055L8.96833 7.48642L11.4342 5.08137C11.5284 4.98943 11.5627 4.85196 11.5217 4.72666ZM8.3549 7.11773C8.27332 7.19751 8.23591 7.31199 8.25529 7.42422L8.74973 10.3079L6.16169 8.94631C6.11121 8.91971 6.05577 8.90664 6.00033 8.90664C5.9449 8.90664 5.88946 8.91971 5.83898 8.94631L3.25094 10.3079L3.74538 7.42422C3.76476 7.31199 3.72735 7.19751 3.64577 7.11773L1.55172 5.07506L4.44535 4.65454C4.55848 4.63831 4.65583 4.5671 4.70631 4.46524L6.00033 1.84159L7.29435 4.46524C7.34484 4.5671 7.44219 4.63831 7.55532 4.65454L10.449 5.07506L8.3549 7.11773Z" fill="#FFCF03"/>
</g>
<defs>
<clipPath id="clip0_141_219">
<rect width="12" height="12" fill="transparent"/>
</clipPath>
</defs>
</svg>

<svg width="12" height="12" fill="none" xmlns="http://www.w3.org/2000/svg"><g clip-path="url(#clip0_141_219)"><path d="M11.522 4.727a.346.346 0 00-.28-.236l-3.407-.495L6.31.906c-.116-.236-.503-.236-.62 0l-1.524 3.09-3.408.495a.346.346 0 00-.192.59l2.466 2.405-.582 3.396a.346.346 0 00.503.365L6 9.644l3.048 1.603a.348.348 0 00.17.04.346.346 0 00.32-.482l-.57-3.319 2.466-2.405a.346.346 0 00.088-.354zm-3.167 2.39a.346.346 0 00-.1.307l.495 2.884-2.588-1.362a.346.346 0 00-.323 0l-2.588 1.362.494-2.884a.346.346 0 00-.1-.306L1.553 5.075l2.893-.42a.346.346 0 00.261-.19L6 1.842l1.294 2.623c.05.102.148.173.261.19l2.894.42-2.094 2.043z" fill="#FFCF03"/></g><defs><clipPath id="clip0_141_219"><path fill="transparent" d="M0 0h12v12H0z"/></clipPath></defs></svg>
